X: 4
T: Waterbed, The
C: Diarmaid Moynihan
Z: J-B-M
S: https://thesession.org/tunes/328#setting47950
R: reel
M: 4/4
L: 1/8
K: Ador
|:EAAE c2 AG|EGDG ED (3EFG|AEGA cA A2|cdec dcAG|
EAAE c2 AG|EGDG ED (3Bcd|ecdc AEGA|cAGE ED D2:|
|:~e2 dege ~e2|cdec dcAG|~e2 dega ~a2|gedc AEGA|
~e2 dege ~e2|cdeg dega|gaeg deGA|cAGE ED D2:|

